src/lib/packages/icons/src/assets/filled/inbox-download.svg

<svg width="24" height="24" viewBox="0 0 24 24" fill="none" xmlns="http://www.w3.org/2000/svg">
<path d="M21.75 13.616V18C21.75 20.418 20.418 21.75 18 21.75H6C3.582 21.75 2.25 20.418 2.25 18V13.616C2.25 13.107 2.35198 12.611 2.55298 12.14L4.53198 7.52301C5.03298 6.35401 5.506 5.25 7.979 5.25C8.393 5.25 8.729 5.586 8.729 6C8.729 6.414 8.393 6.75 7.979 6.75C6.495 6.75 6.35989 7.06601 5.91089 8.11401L4.03101 12.5H6.95605C8.11605 12.5 9.19504 13.159 9.84204 14.263C10.288 15.026 11.115 15.5 12.001 15.5C12.887 15.5 13.7139 15.026 14.1599 14.263C14.8059 13.159 15.8859 12.5 17.0459 12.5H19.9719L18.0911 8.11401C17.6421 7.06601 17.5069 6.75 16.0229 6.75C15.6089 6.75 15.2729 6.414 15.2729 6C15.2729 5.586 15.6089 5.25 16.0229 5.25C18.4969 5.25 18.969 6.35401 19.47 7.52301L21.449 12.139C21.648 12.61 21.75 13.107 21.75 13.616ZM11.47 10.53C11.539 10.599 11.6221 10.654 11.7141 10.692C11.8061 10.73 11.903 10.75 12.001 10.75C12.099 10.75 12.1961 10.73 12.2881 10.692C12.3801 10.654 12.463 10.599 12.532 10.53L14.532 8.53C14.825 8.237 14.825 7.76199 14.532 7.46899C14.239 7.17599 13.7639 7.17599 13.4709 7.46899L12.751 8.189V2C12.751 1.586 12.415 1.25 12.001 1.25C11.587 1.25 11.251 1.586 11.251 2V8.189L10.531 7.46899C10.238 7.17599 9.76297 7.17599 9.46997 7.46899C9.17697 7.76199 9.17697 8.237 9.46997 8.53L11.47 10.53Z" fill="currentColor"/>
</svg>

<svg xmlns="http://www.w3.org/2000/svg" width="24" height="24" fill="none"><path fill="currentColor" d="M21.75 13.616V18c0 2.418-1.332 3.75-3.75 3.75H6c-2.418 0-3.75-1.332-3.75-3.75v-4.384c0-.509.102-1.005.303-1.476l1.979-4.617c.501-1.169.974-2.273 3.447-2.273a.75.75 0 0 1 0 1.5c-1.484 0-1.62.316-2.068 1.364L4.03 12.5h2.925c1.16 0 2.239.659 2.886 1.763A2.508 2.508 0 0 0 12 15.5c.886 0 1.713-.474 2.159-1.237.646-1.104 1.726-1.763 2.886-1.763h2.926l-1.88-4.386c-.45-1.048-.585-1.364-2.07-1.364a.75.75 0 0 1 0-1.5c2.475 0 2.947 1.104 3.448 2.273l1.979 4.616c.199.471.301.968.301 1.477ZM11.47 10.53a.75.75 0 0 0 .818.162.749.749 0 0 0 .244-.162l2-2a.75.75 0 1 0-1.061-1.061l-.72.72V2a.75.75 0 0 0-1.5 0v6.189l-.72-.72A.75.75 0 1 0 9.47 8.53l2 2Z"/></svg>
